X: 1
T: Welcome to Ayr
T: 8x32J 3C (Jill Henrickson, Kathy Stewart, RSCDS Bk 47)
P: Welcome to Ayr
C: Colin Dewar
C: from Originally Ours 2, arr. T. Traub 10-14-2015
M: 6/8
R: jig
K: D
|: A|"D"d2 A FAF |"D"DFA BAF|"G"GBG "D"FDA|"Em"GFG "A"EAc|"D"d2 A FAF|"D"DFA BAF|"G"GAB "A"cAe|"D"d3 d2 :|
|: c|"G"Bcd GAB|"D"Acd FGA|"Em"G2 E "A"CDE|"D"D2 F Adc|"G"Bcd GAB|"D"Acd FGA|"Em"GAB "A"cAe|"D"d3 d2 :|
